swiss/communes/0052.svg

<?xml version="1.0" encoding="UTF-8" standalone="no"?>
<!-- Created with Inkscape (http://www.inkscape.org/) -->
<svg
   xmlns:svg="http://www.w3.org/2000/svg"
   xmlns="http://www.w3.org/2000/svg"
   version="1.0"
   width="222.69121"
   height="260.67715"
   id="svg2780">
  <defs
     id="defs2782" />
  <g
     transform="translate(-40.798928,-813.27152)"
     id="layer1">
    <path
       d="M 41.798928,814.27152 L 45.811491,982.71248 C 48.6776,1103.0274 255.61146,1103.0274 258.47758,982.71248 L 262.49014,814.27152 L 41.798928,814.27152 z"
       id="path3282"
       style="fill:#ffffff;fill-opacity:1;fill-rule:evenodd;stroke:none;stroke-width:1.99999988;stroke-linecap:butt;stroke-miterlimit:4;stroke-dashoffset:0;stroke-opacity:1" />
    <path
       d="M 42.28125,29.40625 L 43.84375,95.09375 L 232.90625,238.78125 C 245.093,226.93431 253.83852,211.5597 257.09375,192.65625 L 42.28125,29.40625 z"
       transform="translate(0,804.33069)"
       id="rect3274"
       style="fill:#2163c6;fill-opacity:1;fill-rule:evenodd;stroke:#000000;stroke-width:1.00000012px;stroke-linecap:butt;stroke-linejoin:miter;marker:none;marker-start:none;marker-mid:none;marker-end:none;stroke-miterlimit:4;stroke-dashoffset:0;stroke-opacity:1;visibility:visible;display:inline;overflow:visible;enable-background:accumulate" />
    <path
       d="M 92.15625,9.9375 L 259.46875,137.09375 L 260.96875,73.75 L 177.03125,9.9375 L 92.15625,9.9375 z"
       transform="translate(0,804.33069)"
       id="path3538"
       style="fill:#2163c6;fill-opacity:1;fill-rule:evenodd;stroke:#000000;stroke-width:1.00000012px;stroke-linecap:butt;stroke-linejoin:miter;marker:none;marker-start:none;marker-mid:none;marker-end:none;stroke-miterlimit:4;stroke-dashoffset:0;stroke-opacity:1;visibility:visible;display:inline;overflow:visible;enable-background:accumulate" />
    <path
       d="M 43.75,91.71875 L 45.21875,153.09375 L 259.0625,153.09375 L 260.53125,91.71875 L 43.75,91.71875 z"
       transform="translate(0,804.33069)"
       id="rect2493"
       style="fill:#c52921;fill-opacity:1;fill-rule:evenodd;stroke:#000000;stroke-width:1.00000012px;stroke-linecap:butt;stroke-linejoin:miter;marker:none;marker-start:none;marker-mid:none;marker-end:none;stroke-miterlimit:4;stroke-dasharray:none;stroke-dashoffset:0;stroke-opacity:1;visibility:visible;display:inline;overflow:visible;enable-background:accumulate" />
    <path
       d="M 45.21875,153.53125 L 45.8125,178.375 C 47.593585,253.14222 128.17683,281.43911 189.625,263.28125 L 45.21875,153.53125 z"
       transform="translate(0,804.33069)"
       id="path3534"
       style="fill:#2163c6;fill-opacity:1;fill-rule:evenodd;stroke:#000000;stroke-width:1.00000012px;stroke-linecap:butt;stroke-linejoin:miter;marker:none;marker-start:none;marker-mid:none;marker-end:none;stroke-miterlimit:4;stroke-dashoffset:0;stroke-opacity:1;visibility:visible;display:inline;overflow:visible;enable-background:accumulate" />
    <path
       d="M 41.798928,814.27152 L 45.811491,982.71248 C 48.6776,1103.0274 255.61146,1103.0274 258.47758,982.71248 L 262.49014,814.27152 L 41.798928,814.27152 z"
       id="path3577"
       style="fill:none;fill-opacity:1;fill-rule:evenodd;stroke:#000000;stroke-width:1.99999988;stroke-linecap:butt;stroke-miterlimit:4;stroke-dashoffset:0;stroke-opacity:1" />
  </g>
</svg>

<svg xmlns="http://www.w3.org/2000/svg" version="1.0" width="222.691" height="260.677"><path d="m41.799 814.272 4.012 168.44c2.867 120.315 209.8 120.315 212.667 0l4.012-168.44H41.8z" style="fill:#fff;fill-opacity:1;fill-rule:evenodd;stroke:none;stroke-width:1.99999988;stroke-linecap:butt;stroke-miterlimit:4;stroke-dashoffset:0;stroke-opacity:1" transform="translate(-40.799 -813.272)"/><path d="m42.281 29.406 1.563 65.688L232.906 238.78c12.187-11.847 20.933-27.221 24.188-46.125L42.28 29.406z" transform="translate(-40.799 -8.94)" style="fill:#2163c6;fill-opacity:1;fill-rule:evenodd;stroke:#000;stroke-width:1.00000012px;stroke-linecap:butt;stroke-linejoin:miter;marker:none;marker-start:none;marker-mid:none;marker-end:none;stroke-miterlimit:4;stroke-dashoffset:0;stroke-opacity:1;visibility:visible;display:inline;overflow:visible;enable-background:accumulate"/><path d="M92.156 9.938 259.47 137.094l1.5-63.344L177.03 9.937H92.156z" transform="translate(-40.799 -8.94)" style="fill:#2163c6;fill-opacity:1;fill-rule:evenodd;stroke:#000;stroke-width:1.00000012px;stroke-linecap:butt;stroke-linejoin:miter;marker:none;marker-start:none;marker-mid:none;marker-end:none;stroke-miterlimit:4;stroke-dashoffset:0;stroke-opacity:1;visibility:visible;display:inline;overflow:visible;enable-background:accumulate"/><path d="m43.75 91.719 1.469 61.375h213.844l1.468-61.375H43.75z" transform="translate(-40.799 -8.94)" style="fill:#c52921;fill-opacity:1;fill-rule:evenodd;stroke:#000;stroke-width:1.00000012px;stroke-linecap:butt;stroke-linejoin:miter;marker:none;marker-start:none;marker-mid:none;marker-end:none;stroke-miterlimit:4;stroke-dasharray:none;stroke-dashoffset:0;stroke-opacity:1;visibility:visible;display:inline;overflow:visible;enable-background:accumulate"/><path d="m45.219 153.531.593 24.844c1.782 74.767 82.365 103.064 143.813 84.906L45.219 153.531z" transform="translate(-40.799 -8.94)" style="fill:#2163c6;fill-opacity:1;fill-rule:evenodd;stroke:#000;stroke-width:1.00000012px;stroke-linecap:butt;stroke-linejoin:miter;marker:none;marker-start:none;marker-mid:none;marker-end:none;stroke-miterlimit:4;stroke-dashoffset:0;stroke-opacity:1;visibility:visible;display:inline;overflow:visible;enable-background:accumulate"/><path d="m41.799 814.272 4.012 168.44c2.867 120.315 209.8 120.315 212.667 0l4.012-168.44H41.8z" style="fill:none;fill-opacity:1;fill-rule:evenodd;stroke:#000;stroke-width:1.99999988;stroke-linecap:butt;stroke-miterlimit:4;stroke-dashoffset:0;stroke-opacity:1" transform="translate(-40.799 -813.272)"/></svg>
